X: 24174
T: Lord Dillon
R: reel
M: 4/4
K: Fmajor
f2 fg e2 d2|c2 AB cBAG|F2 C2 D2 E2|F2 G2 A2 B2|c4 f2 ed|
c2 g2 c2 e2|f2 c'2 b2 a2|g2 f2 e4|f2 de f2 c2|f2 b2 d2 B2|
c'bab c'2 f2|e2 g2 c'2 g2|a2 d'2 g2 f2|edef g2 a2|c2 f2 f2 ge|f4 f4:|
|:c3/2d/ c2 B3/2c/ B2|A3/2B/ A2 G3/2A/ G2|F2 E2 D2 C2|B,2 D2 G2 C2|
F2 c2 BAGF|B2 d2 g2 d2|f2 c'2 d2 b2|c2 a2 g2 f2|ga b2 d2 B2|
c2 g2 fede|f2 f2 fa f2|fa f2 b2 g2|a2 a2 a2 c'f|dg f2 e2 dc|
de f2 d2 B2|g2 f2 e2 d2|c2 B2 ABAF|f4 f4:|

